suite-common/icons/assets/icons/eyeglasses.svg

<svg xmlns="http://www.w3.org/2000/svg" xml:space="preserve" fill="none" viewBox="0 0 24 24">
  <path fill="#000" fill-rule="evenodd" d="M4.58 3.823a3 3 0 0 0-.64.233 3.06 3.06 0 0 0-1.589 1.887l-.089.317-.014 4.52c-.016 5.31-.014 5.339.323 6.174.376.931 1.258 1.824 2.179 2.207.594.248.842.293 1.61.296.608.003.745-.009 1.04-.088.491-.132 1.237-.513 1.599-.819a4.24 4.24 0 0 0 1.439-2.5l.049-.29h3.019l.082.413c.179.911.679 1.76 1.385 2.352a3.8 3.8 0 0 0 1.067.643c.598.253.814.292 1.6.289.782-.003 1.039-.052 1.641-.312.929-.403 1.773-1.264 2.148-2.191.337-.835.339-.864.323-6.174l-.014-4.52-.089-.317a3.05 3.05 0 0 0-1.589-1.884c-.597-.293-1.299-.384-1.65-.214a.73.73 0 0 0-.33.975c.123.254.321.378.674.422.155.019.331.047.393.062.371.09.776.432.964.813l.109.223.011 2.91c.006 1.601 0 2.91-.012 2.91a1.3 1.3 0 0 1-.211-.144c-.259-.198-.926-.516-1.29-.615-.62-.168-1.519-.176-2.124-.019a4.25 4.25 0 0 0-2.283 1.554c-.24.323-.506.831-.594 1.134l-.05.17h-3.334l-.05-.17c-.088-.303-.354-.811-.594-1.134a4.2 4.2 0 0 0-2.269-1.548c-.596-.163-1.507-.158-2.138.013-.364.099-1.031.417-1.29.615a1.3 1.3 0 0 1-.211.144c-.012 0-.018-1.309-.012-2.91l.011-2.91.105-.22c.177-.373.596-.726.968-.816.062-.015.238-.043.393-.062.353-.044.551-.168.674-.422a.73.73 0 0 0-.33-.975c-.207-.1-.572-.109-1.01-.022M7 12.822c.779.183 1.511.821 1.811 1.578.281.713.248 1.46-.097 2.16-.234.475-.679.92-1.154 1.154-.7.345-1.447.378-2.16.097-.757-.3-1.395-1.032-1.578-1.811a3.1 3.1 0 0 1 .017-1.296 2.65 2.65 0 0 1 1.849-1.863A3.2 3.2 0 0 1 7 12.822m11.44.052c.75.243 1.447.939 1.686 1.685.117.365.144 1.046.056 1.421a2.7 2.7 0 0 1-1.582 1.831 2.6 2.6 0 0 1-2.16-.097c-.681-.336-1.226-1.042-1.385-1.794-.135-.642.004-1.414.353-1.951s.98-.998 1.572-1.147c.347-.087 1.116-.06 1.46.052"/>
</svg>

<svg xmlns="http://www.w3.org/2000/svg" xml:space="preserve" fill="none" viewBox="0 0 24 24"><path d="M4.580 3.823 C 4.422 3.854,4.143 3.956,3.940 4.056 C 3.162 4.443,2.578 5.136,2.351 5.943 L 2.262 6.260 2.248 10.780 C 2.232 16.090,2.234 16.119,2.571 16.954 C 2.947 17.885,3.829 18.778,4.750 19.161 C 5.344 19.409,5.592 19.454,6.360 19.457 C 6.968 19.460,7.105 19.448,7.400 19.369 C 7.891 19.237,8.637 18.856,8.999 18.550 C 9.753 17.915,10.279 17.002,10.438 16.050 L 10.487 15.760 11.997 15.760 L 13.506 15.760 13.588 16.173 C 13.767 17.084,14.267 17.933,14.973 18.525 C 15.307 18.806,15.598 18.981,16.040 19.168 C 16.638 19.421,16.854 19.460,17.640 19.457 C 18.422 19.454,18.679 19.405,19.281 19.145 C 20.210 18.742,21.054 17.881,21.429 16.954 C 21.766 16.119,21.768 16.090,21.752 10.780 L 21.738 6.260 21.649 5.943 C 21.422 5.137,20.831 4.436,20.060 4.059 C 19.463 3.766,18.761 3.675,18.410 3.845 C 18.053 4.018,17.904 4.457,18.080 4.820 C 18.203 5.074,18.401 5.198,18.754 5.242 C 18.909 5.261,19.085 5.289,19.147 5.304 C 19.518 5.394,19.923 5.736,20.111 6.117 L 20.220 6.340 20.231 9.250 C 20.237 10.851,20.231 12.160,20.219 12.160 C 20.206 12.160,20.111 12.095,20.008 12.016 C 19.749 11.818,19.082 11.500,18.718 11.401 C 18.098 11.233,17.199 11.225,16.594 11.382 C 15.712 11.610,14.871 12.183,14.311 12.936 C 14.071 13.259,13.805 13.767,13.717 14.070 L 13.667 14.240 12.000 14.240 L 10.333 14.240 10.283 14.070 C 10.195 13.767,9.929 13.259,9.689 12.936 C 9.128 12.181,8.332 11.638,7.420 11.388 C 6.824 11.225,5.913 11.230,5.282 11.401 C 4.918 11.500,4.251 11.818,3.992 12.016 C 3.889 12.095,3.794 12.160,3.781 12.160 C 3.769 12.160,3.763 10.851,3.769 9.250 L 3.780 6.340 3.885 6.120 C 4.062 5.747,4.481 5.394,4.853 5.304 C 4.915 5.289,5.091 5.261,5.246 5.242 C 5.599 5.198,5.797 5.074,5.920 4.820 C 6.096 4.457,5.947 4.018,5.590 3.845 C 5.383 3.745,5.018 3.736,4.580 3.823 M7.000 12.822 C 7.779 13.005,8.511 13.643,8.811 14.400 C 9.092 15.113,9.059 15.860,8.714 16.560 C 8.480 17.035,8.035 17.480,7.560 17.714 C 6.860 18.059,6.113 18.092,5.400 17.811 C 4.643 17.511,4.005 16.779,3.822 16.000 C 3.736 15.632,3.743 15.080,3.839 14.704 C 4.066 13.815,4.804 13.073,5.688 12.841 C 6.050 12.746,6.640 12.738,7.000 12.822 M18.440 12.874 C 19.190 13.117,19.887 13.813,20.126 14.559 C 20.243 14.924,20.270 15.605,20.182 15.980 C 19.995 16.779,19.365 17.508,18.600 17.811 C 17.887 18.092,17.140 18.059,16.440 17.714 C 15.759 17.378,15.214 16.672,15.055 15.920 C 14.920 15.278,15.059 14.506,15.408 13.969 C 15.757 13.431,16.388 12.971,16.980 12.822 C 17.327 12.735,18.096 12.762,18.440 12.874 " stroke="none" fill-rule="evenodd" fill="black"></path></svg>
